public/Img/Product/service__coro.svg

<svg width="56" height="56" viewBox="0 0 56 56" fill="none" xmlns="http://www.w3.org/2000/svg">
<g id="Icon">
<path id="Vector" fill-rule="evenodd" clip-rule="evenodd" d="M11.1998 16.8C11.1998 17.2119 11.1405 17.61 11.03 17.9861L18.3939 22.2377C17.9131 23.0374 17.5294 23.9022 17.259 24.8156L9.37544 20.264C8.69979 20.7283 7.88153 21 6.9998 21C4.68021 21 2.7998 19.1196 2.7998 16.8C2.7998 14.4804 4.68021 12.6 6.9998 12.6C9.3194 12.6 11.1998 14.4804 11.1998 16.8ZM26.5996 39.1133C27.0583 39.1705 27.5256 39.2 27.9998 39.2C28.4739 39.2 28.941 39.1705 29.3996 39.1134V46.4389C31.031 47.0154 32.1998 48.5712 32.1998 50.4C32.1998 52.7196 30.3194 54.6 27.9998 54.6C25.6802 54.6 23.7998 52.7196 23.7998 50.4C23.7998 48.5714 24.9684 47.0157 26.5996 46.4391V39.1133ZM38.7406 24.8156C38.4702 23.9022 38.0865 23.0374 37.6057 22.2377L44.9696 17.9861C44.8591 17.61 44.7998 17.2119 44.7998 16.8C44.7998 14.4804 46.6802 12.6 48.9998 12.6C51.3194 12.6 53.1998 14.4804 53.1998 16.8C53.1998 19.1196 51.3194 21 48.9998 21C48.1181 21 47.2998 20.7283 46.6242 20.264L38.7406 24.8156Z" fill="#6B7CFF"/>
<path id="Vector_2" fill-rule="evenodd" clip-rule="evenodd" d="M29.3996 13.8438C32.205 13.2071 34.2992 10.6981 34.2992 7.70002C34.2992 4.22063 31.4786 1.40002 27.9992 1.40002C24.5198 1.40002 21.6992 4.22063 21.6992 7.70002C21.6992 10.6984 23.7938 13.2075 26.5996 13.844V19.7161C22.6268 20.3827 19.5996 23.8378 19.5996 28C19.5996 29.8141 20.1747 31.4939 21.1524 32.867L15.2534 38.7659C14.2823 38.154 13.1323 37.8 11.8996 37.8C8.42022 37.8 5.59961 40.6206 5.59961 44.1C5.59961 47.5794 8.42022 50.4 11.8996 50.4C15.379 50.4 18.1996 47.5794 18.1996 44.1C18.1996 42.8672 17.8455 41.717 17.2334 40.7458L23.1323 34.8469C24.5055 35.8248 26.1854 36.4 27.9996 36.4C29.8138 36.4 31.4936 35.8249 32.8668 34.847L38.7658 40.7461C38.1539 41.7172 37.7998 42.8673 37.7998 44.1C37.7998 47.5794 40.6204 50.4 44.0998 50.4C47.5792 50.4 50.3998 47.5794 50.3998 44.1C50.3998 40.6206 47.5792 37.8 44.0998 37.8C42.867 37.8 41.7169 38.1541 40.7457 38.7661L34.8467 32.8671C35.8245 31.494 36.3996 29.8141 36.3996 28C36.3996 23.8378 33.3724 20.3827 29.3996 19.7161V13.8438Z" fill="#6B7CFF"/>
</g>
</svg>

<svg width="56" height="56" fill="none" xmlns="http://www.w3.org/2000/svg"><g fill-rule="evenodd" clip-rule="evenodd" fill="#6B7CFF"><path d="M11.2 16.8c0 .412-.06.81-.17 1.186l7.364 4.252c-.48.8-.865 1.664-1.135 2.578l-7.884-4.552A4.2 4.2 0 1 1 11.2 16.8Zm15.4 22.313a11.312 11.312 0 0 0 2.8 0v7.326A4.202 4.202 0 0 1 28 54.6a4.2 4.2 0 0 1-1.4-8.16v-7.327Zm12.14-14.297a11.138 11.138 0 0 0-1.134-2.578l7.364-4.252a4.2 4.2 0 1 1 1.655 2.278l-7.884 4.552Z"/><path d="M29.4 13.844a6.3 6.3 0 1 0-2.8 0v5.872a8.402 8.402 0 0 0-5.448 13.151l-5.899 5.899a6.3 6.3 0 1 0 1.98 1.98l5.9-5.9A8.362 8.362 0 0 0 28 36.4a8.362 8.362 0 0 0 4.867-1.553l5.899 5.9a6.3 6.3 0 1 0 1.98-1.98l-5.9-5.9A8.402 8.402 0 0 0 29.4 19.716v-5.872Z"/></g></svg>
